X: 25520
T: Margaret's Delight
R: reel
M: 4/4
K: Amajor
|A,2 A,C EA,A,A|c2 Bc BAFB|AFEF A2 Af|ecBA BcAF|
A,2 A,C EA,A,A|c2 Bc BAFB|AFEF A2 Af|ecBd cAAE:|
f|ecBc AFEF|A/A/A Aa fefa|ecBA cAAF|AFEC EA,A,:|

